X: 16635
T: Hangover Tuesday
R: jig
M: 6/8
K: Eminor
A|:cBA aAa|AaA ged|B2G GFG|DGA BAG|
AcB AaA|aAa ged|Bed BAG|1 ABA A2A:|2 ABA AED|
|:A,DE A2B|cBA ABA|G2B BAG|EDC B,A,G,|
A,DE A2B|cBA ABA|G2B BAG|1 ABA AED:|2 ABA A2"<("A"<)"||

